X: 167
T: No_99_We_are_Singing_in_the_Night.krn
N: Derived from No_99_We_are_Singing_in_the_Night.krn
%%abc-version 2.0
%%abcx-abcm2ps-target-version 5.9.1 (29 Sep 2008)
%%abc-creator hum2abc beta
%%abcx-conversion-date 2019/03/15 08:37:56
%%humdrum-veritas 3900924404
%%humdrum-veritas-data 45342641
%%linebreak <none>
%%barnumbers 0
L: 1/8
M: 2/4
K: Gb clef=bass
[K:clef=bass][M:2/4]C3/B,/ C3/B,/ | 
C2B,3/F,/ | 
G,3F, | 
B,3/G,/ B,3/G,/ | 
B,2G,3/E,/ | 
E,2E,F,/F,/ ||  
[M:3/4]F,4E,3/C,/ ||  
[M:2/4]E,2C,3/C,/ | 
C,4 | 
E,2F,3/F,/ | 
F,2F,3/E,/ ||  
[M:3/4]F,2E,3/E,/ G,E,/E,/ | 
F,2F,F, E,3/C,/ | 
F,F, E,C,/C,/ z E, ||  
[M:2/4]F,3F, | 
F,3/F,/ E,3/C,/ | 
F,F, E,E,/E,/ | 
E,4 |]  



